images/astronaut.svg

<svg width="78" height="78" viewBox="0 0 78 78" fill="none" xmlns="http://www.w3.org/2000/svg">
<g filter="url(#filter0_d)">
<path d="M73.9434 9.89643C73.8058 9.47519 73.4418 9.1673 73.002 9.10304L68.823 8.49518L66.9528 4.70815C66.5608 3.91011 65.2529 3.91011 64.8609 4.70815L62.9907 8.49518L58.8116 9.10318C58.3718 9.1673 58.0078 9.47424 57.8689 9.89657C57.7325 10.3189 57.8455 10.7832 58.1641 11.0925L61.1893 14.0407L60.4754 18.2035C60.4007 18.641 60.5804 19.0831 60.9386 19.3445C61.3014 19.6083 61.775 19.6408 62.1682 19.4331L65.9063 17.4672L69.6444 19.4331C69.8147 19.5229 70.0026 19.5672 70.1881 19.5672C70.4296 19.5672 70.6712 19.4926 70.8742 19.3444C71.2335 19.0831 71.4131 18.6408 71.3374 18.2033L70.6235 14.0406L73.6487 11.0923C73.9656 10.782 74.08 10.3188 73.9434 9.89643ZM68.5558 12.7992C68.2817 13.0663 68.1556 13.4536 68.221 13.8317L68.6387 16.2689L66.4501 15.1185C66.2797 15.0287 66.0931 14.9844 65.9063 14.9844C65.7197 14.9844 65.5342 15.0287 65.3626 15.1185L63.1738 16.2689L63.5915 13.8317C63.6568 13.4536 63.5308 13.0675 63.2567 12.7992L61.4845 11.0725L63.9322 10.7166C64.3126 10.6618 64.6404 10.4227 64.8108 10.0784L65.9051 7.86175L66.9994 10.0784C67.1697 10.4225 67.4976 10.6618 67.878 10.7166L70.3257 11.0725L68.5558 12.7992Z" fill="#2196F3"/>
<path d="M61.1669 44.8923H58.8335V47.2257H61.1669V44.8923Z" fill="#2196F3"/>
<path d="M61.1669 49.5591H58.8335V51.8925H61.1669V49.5591Z" fill="#2196F3"/>
<path d="M63.5004 47.2257H61.167V49.5591H63.5004V47.2257Z" fill="#2196F3"/>
<path d="M58.8339 47.2257H56.5005V49.5591H58.8339V47.2257Z" fill="#2196F3"/>
<path d="M53.0004 57.7258H50.667V60.0592H53.0004V57.7258Z" fill="#2196F3"/>
<path d="M53.0004 62.3926H50.667V64.726H53.0004V62.3926Z" fill="#2196F3"/>
<path d="M55.3334 60.0593H53V62.3927H55.3334V60.0593Z" fill="#2196F3"/>
<path d="M50.6669 60.0593H48.3335V62.3927H50.6669V60.0593Z" fill="#2196F3"/>
<path d="M38.9999 53.0592H36.6665V55.3926H38.9999V53.0592Z" fill="#2196F3"/>
<path d="M38.9999 57.7258H36.6665V60.0592H38.9999V57.7258Z" fill="#2196F3"/>
<path d="M41.3334 55.3925H39V57.7259H41.3334V55.3925Z" fill="#2196F3"/>
<path d="M36.6664 55.3925H34.333V57.7259H36.6664V55.3925Z" fill="#2196F3"/>
<path d="M16.8329 13.3918H14.4995V15.7253H16.8329V13.3918Z" fill="#2196F3"/>
<path d="M16.8329 18.0586H14.4995V20.392H16.8329V18.0586Z" fill="#2196F3"/>
<path d="M19.1664 15.7252H16.833V18.0586H19.1664V15.7252Z" fill="#2196F3"/>
<path d="M14.4994 15.7252H12.166V18.0586H14.4994V15.7252Z" fill="#2196F3"/>
<path d="M58.0635 30.9739C57.4347 30.1257 56.5119 29.5797 55.4642 29.4326C54.4118 29.2833 53.3734 29.5598 52.5334 30.2026L49.7952 32.3014L49.794 32.3027L45.6428 35.4025L42.6724 34.2195C47.9691 31.843 51.6711 26.5451 51.6711 20.3943C51.6711 12.0315 44.8401 5.22742 36.4436 5.22742C28.047 5.22742 21.2161 12.0315 21.2161 20.3943C21.2161 23.4254 22.1226 26.244 23.6662 28.6158L17.6204 28.5633C17.6168 28.5633 17.6134 28.5633 17.6099 28.5633C17.5911 28.5633 17.5761 28.5726 17.5586 28.5739C17.4431 28.5785 17.3298 28.6019 17.2191 28.6416C17.1911 28.6521 17.162 28.658 17.1352 28.6707C17.1212 28.6765 17.1071 28.6776 17.0932 28.6846L10.0207 32.1765C10.0195 32.1765 10.0184 32.1765 10.0184 32.1776L5.8766 34.1693C5.83107 34.1891 5.78445 34.2159 5.73892 34.2463C4.08802 35.3452 3.52569 37.5037 4.42996 39.2676C4.91176 40.2057 5.73195 40.8964 6.73999 41.2125C7.12856 41.3338 7.52518 41.3934 7.91949 41.3934C8.55305 41.3934 9.18074 41.2382 9.75578 40.9314L12.7915 39.3167L17.7441 36.7594L20.7122 36.7418L8.80844 48.5884C8.80735 48.5897 8.80612 48.5897 8.80489 48.5908L5.87647 51.5074C5.18466 52.1958 4.8043 53.1092 4.8043 54.0835C4.8043 55.0566 5.18466 55.9723 5.87647 56.6619C6.587 57.3689 7.52149 57.7236 8.45598 57.7236C9.3917 57.7236 10.325 57.3689 11.0378 56.6619L13.9125 53.7989L17.7206 50.9556L19.6912 52.918L15.8375 56.7552C15.8364 56.7564 15.8352 56.7564 15.834 56.7575L12.9056 59.6742C12.2138 60.3626 11.8334 61.276 11.8334 62.2503C11.8334 63.2233 12.2138 64.1391 12.9056 64.8287C13.6161 65.5357 14.5518 65.8903 15.4863 65.8903C16.4208 65.8903 17.3565 65.5357 18.0681 64.8287L20.9977 61.912L25.6842 57.2453C25.6854 57.2441 25.6854 57.243 25.6865 57.2418L27.8951 55.0542L27.8869 55.046C27.9008 55.0321 27.9207 55.0273 27.9347 55.0123L39.2353 42.6349L46.8281 43.7153C46.8829 43.7235 46.9377 43.7269 46.9925 43.7269C47.1338 43.7269 47.2702 43.6931 47.402 43.643C47.4406 43.629 47.4743 43.6103 47.5106 43.5917C47.5526 43.5706 47.5968 43.559 47.6366 43.5322L54.6659 38.8655C54.6916 38.848 54.7055 38.82 54.73 38.8014C54.758 38.7793 54.793 38.77 54.8186 38.7454L57.5999 36.1401C59.0471 34.7841 59.2466 32.5628 58.0635 30.9739ZM8.66024 38.8722C8.28111 39.0753 7.85058 39.116 7.43878 38.9854C7.03039 38.8583 6.69912 38.5794 6.50538 38.2026C6.15305 37.5165 6.35718 36.6811 6.97433 36.2297L9.84793 34.8472L10.5397 36.869L10.8303 37.7183L8.66024 38.8722ZM16.3102 34.8741L12.9233 36.6241L12.3646 34.9907L11.9633 33.817L16.3967 31.6282L16.3102 34.8741ZM49.3402 20.3919C49.3402 22.4009 48.8607 24.2957 48.03 25.9908L38.8832 21.8363C38.7875 20.5821 38.1366 19.4843 37.1589 18.8005L40.3614 8.16856C45.5626 9.82302 49.3402 14.6752 49.3402 20.3919ZM23.5519 20.3919C23.5519 13.316 29.3363 7.55837 36.446 7.55837C36.9991 7.55837 37.5403 7.60499 38.0759 7.67267L34.9433 18.0714C34.9014 18.0702 34.8617 18.0585 34.8185 18.0585C32.5597 18.0585 30.7222 19.8902 30.7222 22.142C30.7222 24.3936 32.5597 26.2254 34.8185 26.2254C36.3375 26.2254 37.65 25.3866 38.3582 24.1592L46.8073 27.9976C44.4564 31.1616 40.6938 33.2255 36.4459 33.2255C29.3363 33.2255 23.5519 27.4679 23.5519 20.3919ZM36.5814 22.142C36.5814 23.1068 35.7903 23.892 34.8185 23.892C33.8467 23.892 33.0556 23.1068 33.0556 22.142C33.0556 21.1771 33.8467 20.3919 34.8185 20.3919C35.7903 20.3919 36.5814 21.1771 36.5814 22.142ZM9.39183 55.0075C8.87503 55.5196 8.03843 55.5185 7.52286 55.0087C7.2743 54.7602 7.13785 54.4324 7.13785 54.0835C7.13785 53.7358 7.2743 53.408 7.52286 53.1619L9.6274 51.0653L11.4894 52.9192L9.39183 55.0075ZM16.4222 63.1744C15.9054 63.6865 15.0677 63.6878 14.552 63.1756C14.3034 62.927 14.1669 62.5993 14.1669 62.2504C14.1669 61.9027 14.3034 61.5749 14.552 61.3288L16.6579 59.2311L17.5388 60.1073L18.5211 61.085L16.4222 63.1744ZM24.0383 55.5862C24.0371 55.5873 24.036 55.5873 24.0348 55.5886L20.1742 59.4386L19.2933 58.5624L18.311 57.5847L22.168 53.7451C22.168 53.7451 22.168 53.7451 22.168 53.744C22.1692 53.7428 22.1703 53.7428 22.1715 53.7417C22.259 53.6542 22.3139 53.5492 22.3676 53.4454C22.3828 53.4151 22.4119 53.3894 22.4248 53.3579C22.461 53.2681 22.4667 53.1713 22.4808 53.0767C22.4878 53.023 22.5112 52.9729 22.5112 52.918C22.5112 52.8398 22.4831 52.764 22.4669 52.6869C22.4529 52.6169 22.4529 52.5457 22.426 52.4781C22.3817 52.3685 22.3058 52.2717 22.2265 52.1771C22.2044 52.1514 22.1962 52.1187 22.1717 52.0942C22.1717 52.0942 22.1717 52.0942 22.1705 52.0942C22.1692 52.0931 22.1692 52.0907 22.1681 52.0896L18.6529 48.5895C18.6156 48.5522 18.5677 48.537 18.5257 48.5056C18.464 48.4577 18.4045 48.4134 18.3356 48.3795C18.2691 48.3469 18.2014 48.327 18.1314 48.3083C18.0568 48.2872 17.9845 48.271 17.9063 48.2651C17.835 48.2604 17.7686 48.2674 17.6975 48.2756C17.6193 48.2849 17.5459 48.2954 17.47 48.3199C17.3964 48.3433 17.3312 48.3794 17.2635 48.4179C17.2203 48.4424 17.1714 48.4506 17.1305 48.481L13.2513 51.3767L11.2808 49.4144L16.5285 44.1946L26.0674 53.576L24.0383 55.5862ZM38.9544 40.2373C38.9207 40.2326 38.8891 40.2455 38.8553 40.2431C38.7701 40.2385 38.6885 40.2444 38.6034 40.2583C38.5369 40.2699 38.4739 40.2828 38.4108 40.3049C38.3362 40.3306 38.2685 40.3656 38.1996 40.4076C38.1343 40.4473 38.0748 40.4892 38.0176 40.5417C37.9896 40.5662 37.9558 40.578 37.9301 40.6059L27.6527 51.8621L18.185 42.5507L24.3825 36.386C24.8387 35.931 24.841 35.1924 24.386 34.7351C24.1562 34.5052 23.854 34.392 23.5519 34.3933V34.3922L18.6984 34.4213L18.7591 30.905L25.5492 30.9633C28.3166 33.7937 32.176 35.5589 36.446 35.5589C37.4027 35.5589 38.3361 35.4598 39.2448 35.2906C39.3323 35.3606 39.4186 35.4318 39.5284 35.4761L44.7995 37.5761L45.1331 39.2351L45.5228 41.1717L38.9544 40.2373ZM47.7944 40.6269L47.1096 37.219L50.2736 34.8565L51.102 35.9554L52.3445 37.6051L47.7944 40.6269ZM56.0055 34.4341L54.1726 36.1515L52.1356 33.4471L53.9544 32.053C54.2938 31.7917 54.7221 31.6855 55.1421 31.7403C55.5644 31.7998 55.9378 32.0203 56.1921 32.3621C56.6658 33.0003 56.5853 33.8905 56.0055 34.4341Z" fill="#212121"/>
<path d="M33.7547 40.5651L29.0669 35.8984C28.6131 35.4447 27.8757 35.4447 27.4207 35.8984L22.7341 40.5651C22.5148 40.7857 22.3911 41.0819 22.3911 41.3923C22.3911 41.7026 22.5136 42.0002 22.7341 42.2195L27.4207 46.8861C27.6482 47.1124 27.9469 47.2256 28.2444 47.2256C28.5419 47.2256 28.8405 47.1124 29.0669 46.8861L33.7547 42.2195C33.974 42.0002 34.0988 41.7026 34.0988 41.3923C34.0988 41.0819 33.9751 40.7844 33.7547 40.5651ZM28.2444 44.4129L25.211 41.3923L28.2444 38.3717L31.2789 41.3923L28.2444 44.4129Z" fill="#212121"/>
<path d="M41.547 11.0923L40.9834 13.358C41.1386 13.3966 44.7845 14.3462 44.7845 18.0586H47.1179C47.1178 13.6461 43.4743 11.5718 41.547 11.0923Z" fill="#212121"/>
<path d="M47.1176 20.392H44.7842V22.7254H47.1176V20.392Z" fill="#212121"/>
<rect x="4.5" y="0.5" width="69" height="69" stroke="white"/>
</g>
<defs>
<filter id="filter0_d" x="0" y="0" width="78" height="78" filterUnits="userSpaceOnUse" color-interpolation-filters="sRGB">
<feFlood flood-opacity="0" result="BackgroundImageFix"/>
<feColorMatrix in="SourceAlpha" type="matrix" values="0 0 0 0 0 0 0 0 0 0 0 0 0 0 0 0 0 0 127 0"/>
<feOffset dy="4"/>
<feGaussianBlur stdDeviation="2"/>
<feColorMatrix type="matrix" values="0 0 0 0 0 0 0 0 0 0 0 0 0 0 0 0 0 0 0.25 0"/>
<feBlend mode="normal" in2="BackgroundImageFix" result="effect1_dropShadow"/>
<feBlend mode="normal" in="SourceGraphic" in2="effect1_dropShadow" result="shape"/>
</filter>
</defs>
</svg>

<svg width="78" height="78" fill="none" xmlns="http://www.w3.org/2000/svg"><g filter="url(#filter0_d)"><path d="M73.943 9.896a1.168 1.168 0 00-.941-.793l-4.179-.608-1.87-3.787c-.392-.798-1.7-.798-2.092 0l-1.87 3.787-4.18.608a1.167 1.167 0 00-.648 1.99l3.026 2.948-.714 4.162c-.074.438.105.88.464 1.142a1.16 1.16 0 001.23.088l3.737-1.966 3.738 1.966a1.168 1.168 0 001.693-1.23l-.713-4.162 3.025-2.949a1.17 1.17 0 00.294-1.196zM68.556 12.8c-.274.267-.4.655-.335 1.033l.418 2.437-2.189-1.15a1.165 1.165 0 00-1.087 0l-2.19 1.15.419-2.437a1.168 1.168 0 00-.335-1.033l-1.773-1.726 2.448-.356c.38-.055.708-.294.879-.639l1.094-2.216L67 10.078c.17.345.499.584.879.639l2.448.355-1.77 1.727zM61.167 44.892h-2.334v2.334h2.334v-2.334zM61.167 49.56h-2.334v2.332h2.334V49.56zM63.5 47.226h-2.333v2.333H63.5v-2.333z" fill="#2196F3"/><path d="M58.834 47.226H56.5v2.333h2.334v-2.333zM53 57.726h-2.333v2.333H53v-2.333zM53 62.393h-2.333v2.333H53v-2.333zM55.333 60.06H53v2.333h2.333v-2.334zM50.667 60.06h-2.334v2.333h2.334v-2.334zM39 53.06h-2.334v2.333H39v-2.334zM39 57.726h-2.334v2.333H39v-2.333zM41.333 55.392H39v2.334h2.333v-2.334zM36.666 55.392h-2.333v2.334h2.333v-2.334zM16.833 13.392H14.5v2.333h2.333v-2.333zM16.833 18.059H14.5v2.333h2.333v-2.333zM19.166 15.725h-2.333v2.334h2.333v-2.334zM14.5 15.725h-2.334v2.334h2.333v-2.334z" fill="#2196F3"/><path d="M58.063 30.974a3.88 3.88 0 00-2.599-1.541 3.886 3.886 0 00-2.93.77L49.794 32.3l-.001.002-4.151 3.1-2.97-1.184c5.296-2.376 8.998-7.674 8.998-13.825 0-8.362-6.83-15.167-15.227-15.167s-15.228 6.804-15.228 15.167c0 3.031.907 5.85 2.45 8.222l-6.046-.053h-.01c-.019 0-.034.01-.051.01a1.136 1.136 0 00-.34.069c-.028.01-.057.016-.084.029-.014.006-.028.007-.042.014l-7.072 3.491c-.002 0-.003 0-.003.002l-4.141 1.991a.898.898 0 00-.138.077 3.895 3.895 0 00-1.309 5.022 3.884 3.884 0 002.31 1.944 3.891 3.891 0 003.016-.281l3.035-1.614 4.953-2.558 2.968-.017L8.808 48.588c0 .002-.002.002-.003.003l-2.929 2.916a3.607 3.607 0 00-1.072 2.577c0 .973.38 1.888 1.072 2.578a3.647 3.647 0 002.58 1.062c.936 0 1.869-.355 2.582-1.062l2.874-2.863 3.809-2.843 1.97 1.962-3.853 3.837-.004.002-2.928 2.917a3.607 3.607 0 00-1.073 2.576c0 .973.38 1.89 1.073 2.579a3.65 3.65 0 002.58 1.061c.935 0 1.87-.354 2.582-1.061l2.93-2.917 4.686-4.667.002-.003 2.21-2.188-.01-.008c.015-.014.035-.019.049-.034l11.3-12.377 7.593 1.08c.055.008.11.012.164.012.142 0 .278-.034.41-.084.039-.014.072-.033.109-.051.042-.021.086-.033.126-.06l7.029-4.666c.026-.018.04-.046.064-.065.028-.022.063-.031.089-.056l2.78-2.605a3.891 3.891 0 00.465-5.166zM8.66 38.872c-.379.203-.81.244-1.221.113a1.564 1.564 0 01-.465-2.755l2.874-1.383.692 2.022.29.85-2.17 1.153zm7.65-3.998l-3.387 1.75-.558-1.633-.402-1.174 4.434-2.189-.087 3.246zm33.03-14.482c0 2.009-.48 3.904-1.31 5.599l-9.147-4.155a4.07 4.07 0 00-1.724-3.035L40.36 8.168c5.202 1.654 8.98 6.506 8.98 12.223zm-25.788 0c0-7.076 5.784-12.834 12.894-12.834.553 0 1.094.047 1.63.115L34.943 18.07c-.042 0-.081-.013-.124-.013a4.094 4.094 0 00-4.097 4.084 4.094 4.094 0 004.096 4.083c1.52 0 2.832-.838 3.54-2.066l8.45 3.839c-2.352 3.164-6.114 5.227-10.362 5.227-7.11 0-12.894-5.757-12.894-12.833zm13.03 1.75c0 .965-.792 1.75-1.764 1.75a1.759 1.759 0 01-1.762-1.75c0-.965.79-1.75 1.763-1.75.971 0 1.762.785 1.762 1.75zM9.391 55.007a1.331 1.331 0 01-1.87.002 1.299 1.299 0 010-1.847l2.105-2.097 1.862 1.854-2.097 2.089zm7.03 8.167a1.33 1.33 0 01-1.87.002 1.3 1.3 0 010-1.847l2.106-2.098.88.876.983.978-2.099 2.09zm7.616-7.588l-.003.003-3.86 3.85-.882-.877-.982-.977 3.857-3.84v-.001l.004-.002c.087-.088.142-.193.196-.297.015-.03.044-.056.057-.087.036-.09.042-.187.056-.281.007-.054.03-.104.03-.159 0-.078-.028-.154-.044-.231-.014-.07-.014-.141-.041-.209a1.167 1.167 0 00-.2-.3c-.022-.027-.03-.06-.054-.084h-.002s0-.003-.002-.004l-3.515-3.5c-.037-.038-.085-.053-.127-.084a1.112 1.112 0 00-.19-.127 1.095 1.095 0 00-.205-.07 1.125 1.125 0 00-.225-.044 1.132 1.132 0 00-.208.01c-.079.01-.152.02-.228.045a1.08 1.08 0 00-.206.098c-.044.024-.093.033-.133.063l-3.88 2.896-1.97-1.963 5.248-5.22 9.538 9.382-2.029 2.01zm14.916-15.349c-.033-.004-.065.008-.099.006a1.153 1.153 0 00-.252.015 1.075 1.075 0 00-.404.15 1.13 1.13 0 00-.181.134c-.028.024-.062.036-.088.064L27.653 51.862l-9.468-9.311 6.198-6.165a1.168 1.168 0 00-.831-1.993l-4.854.028.061-3.516 6.79.058a15.2 15.2 0 0010.897 4.596c.957 0 1.89-.1 2.799-.268.087.07.174.14.283.185l5.272 2.1.333 1.66.39 1.936-6.569-.935zm8.84.39l-.684-3.408 3.164-2.363.828 1.1 1.242 1.65-4.55 3.02zm8.212-6.193l-1.833 1.718-2.037-2.705 1.818-1.394c.34-.261.768-.367 1.188-.313.422.06.796.28 1.05.622a1.562 1.562 0 01-.187 2.072z" fill="#212121"/><path d="M33.755 40.565l-4.688-4.667a1.166 1.166 0 00-1.646 0l-4.687 4.667a1.172 1.172 0 000 1.654l4.687 4.667a1.165 1.165 0 001.646 0l4.688-4.667a1.167 1.167 0 000-1.654zm-5.51 3.848l-3.034-3.02 3.033-3.021 3.035 3.02-3.035 3.02zM41.547 11.092l-.564 2.266c.156.039 3.802.988 3.802 4.7h2.333c0-4.412-3.644-6.486-5.571-6.966zM47.118 20.392h-2.334v2.333h2.334v-2.333z" fill="#212121"/><path stroke="#fff" d="M4.5.5h69v69h-69z"/></g><defs><filter id="filter0_d" x="0" y="0" width="78" height="78" filterUnits="userSpaceOnUse" color-interpolation-filters="sRGB"><feFlood flood-opacity="0" result="BackgroundImageFix"/><feColorMatrix in="SourceAlpha" values="0 0 0 0 0 0 0 0 0 0 0 0 0 0 0 0 0 0 127 0"/><feOffset dy="4"/><feGaussianBlur stdDeviation="2"/><feColorMatrix values="0 0 0 0 0 0 0 0 0 0 0 0 0 0 0 0 0 0 0.25 0"/><feBlend in2="BackgroundImageFix" result="effect1_dropShadow"/><feBlend in="SourceGraphic" in2="effect1_dropShadow" result="shape"/></filter></defs></svg>
